assets/img/base/logo.svg

<svg width="260" height="37" viewBox="0 0 260 37" fill="none" xmlns="http://www.w3.org/2000/svg">
<g clip-path="url(#clip0_1458_3879)">
<path d="M32.4626 25.8519C29.7043 25.8406 27.3153 24.2457 26.1115 21.9123C26.0995 21.8898 26.0834 21.8689 26.0714 21.8462H26.0644L14.0826 0.422325L0.999878 0.372448L19.6073 33.6381C22.1046 38.1012 28.3875 38.1256 30.9166 33.6811L35.8598 24.9951C34.8462 25.545 33.69 25.8562 32.4626 25.8519Z" fill="#1C62AE"/>
<path d="M38.4461 0.506051L27.1511 0.472087L32.5909 10.2041L32.5947 10.1972C33.6668 12.368 35.8578 13.8629 38.3976 13.873C42.0048 13.886 44.9395 10.9053 44.9532 7.21445C44.9669 3.52314 42.0533 0.520075 38.4461 0.506051Z" fill="#1C62AE"/>
<path d="M90.9938 14.9315H102.286V10.4521H90.9938V5.04804H103.779V0.42667H85.4008V25.3125H104.231V20.6911H90.9938V14.9315Z" fill="#100F0D"/>
<path d="M183.952 5.11931H191.734V25.3125H197.363V5.11931H205.144V0.42667H183.952V5.11931Z" fill="#100F0D"/>
<path d="M69.1778 18.2026L61.7776 0.426647H55.6971L66.1893 25.3135H71.7487L82.2764 0.426647H76.6819L69.1778 18.2026Z" fill="#100F0D"/>
<path d="M116.378 5.90188C117.581 5.23891 118.961 4.90676 120.513 4.90676C122.967 4.90676 125.064 5.84305 126.8 7.71503L130.415 4.30163C129.233 2.90358 127.774 1.83765 126.037 1.10198C124.3 0.368193 122.364 0.000671387 120.234 0.000671387C117.686 0.000671387 115.393 0.55131 113.356 1.6538C111.317 2.75544 109.725 4.28457 108.578 6.23936C107.431 8.19458 106.858 10.4047 106.858 12.8702C106.858 15.3354 107.431 17.545 108.578 19.5008C109.725 21.456 111.305 22.9847 113.321 24.0865C115.336 25.1888 117.605 25.7395 120.13 25.7395C121.89 25.7395 123.639 25.4668 125.376 24.9219C127.114 24.3766 128.642 23.5946 129.963 22.575V12.4792H124.82V19.7667C123.523 20.4783 122.064 20.8338 120.443 20.8338C118.914 20.8338 117.553 20.4963 116.361 19.8202C115.167 19.1445 114.235 18.2029 113.564 16.9944C112.891 15.7857 112.556 14.4108 112.556 12.8702C112.556 11.3052 112.891 9.91912 113.564 8.71055C114.235 7.50183 115.174 6.56525 116.378 5.90188Z" fill="#100F0D"/>
<path d="M177.7 11.9457C176.519 11.4959 175.001 11.0453 173.148 10.5944C171.365 10.1918 170.039 9.78284 169.17 9.36803C168.303 8.95437 167.868 8.31989 167.868 7.46641C167.868 6.61327 168.244 5.92599 168.997 5.40466C169.749 4.88322 170.913 4.62234 172.489 4.62234C174.734 4.62234 176.982 5.27417 179.229 6.57756L180.966 2.20505C179.854 1.49365 178.556 0.948347 177.075 0.568949C175.593 0.19029 174.075 0.000370026 172.523 0.000370026C170.3 0.000370026 168.418 0.344656 166.878 1.03219C165.338 1.71869 164.185 2.64876 163.421 3.8228C162.656 4.99567 162.275 6.30584 162.275 7.75113C162.275 9.41065 162.697 10.7372 163.543 11.7326C164.387 12.7288 165.401 13.451 166.582 13.9017C167.763 14.3514 169.28 14.8024 171.133 15.2523C172.337 15.5363 173.293 15.7975 174 16.0342C174.707 16.2716 175.286 16.5859 175.737 16.9762C176.188 17.3678 176.414 17.8597 176.414 18.4518C176.414 19.2576 176.033 19.904 175.268 20.3897C174.503 20.876 173.323 21.1181 171.724 21.1181C170.288 21.1181 168.852 20.8814 167.416 20.4073C165.98 19.9337 164.741 19.305 163.699 18.5231L161.787 22.8605C162.877 23.7139 164.318 24.4065 166.113 24.9406C167.907 25.4736 169.767 25.7402 171.689 25.7402C173.913 25.7402 175.8 25.3958 177.352 24.7086C178.904 24.0218 180.068 23.0917 180.844 21.9181C181.621 20.7448 182.009 19.4469 182.009 18.0259C182.009 16.3662 181.586 15.0514 180.74 14.0795C179.894 13.1075 178.882 12.3967 177.7 11.9457Z" fill="#100F0D"/>
<path d="M225.751 16.9947C225.09 18.2032 224.18 19.1448 223.023 19.8209C221.864 20.4966 220.568 20.8341 219.132 20.8341C217.696 20.8341 216.399 20.4966 215.24 19.8209C214.081 19.1448 213.173 18.2032 212.514 16.9947C211.853 15.7852 211.523 14.4111 211.523 12.8705C211.523 11.3297 211.853 9.95526 212.514 8.74654C213.173 7.53798 214.081 6.59518 215.24 5.91952C216.399 5.24453 217.696 4.90705 219.132 4.90705C220.568 4.90705 221.864 5.24453 223.023 5.91952C224.18 6.59518 225.09 7.53798 225.751 8.74654C226.41 9.95526 226.741 11.3297 226.741 12.8705C226.741 14.4111 226.41 15.7852 225.751 16.9947ZM225.942 1.67144C223.926 0.557816 221.656 0.000965118 219.132 0.000965118C216.606 0.000965118 214.332 0.557816 212.305 1.67144C210.277 2.78607 208.692 4.31953 207.545 6.2755C206.398 8.23054 205.825 10.43 205.825 12.8705C205.825 15.3112 206.398 17.5099 207.545 19.4654C208.692 21.4205 210.277 22.9551 212.305 24.069C214.332 25.1831 216.606 25.7402 219.132 25.7402C221.656 25.7402 223.926 25.1831 225.942 24.069C227.956 22.9551 229.543 21.4205 230.701 19.4654C231.859 17.5099 232.438 15.3112 232.438 12.8705C232.438 10.43 231.859 8.23054 230.701 6.2755C229.543 4.31953 227.956 2.78607 225.942 1.67144Z" fill="#100F0D"/>
<path d="M261 25.313L251.805 11.9627L260.493 0.372408H254.515L241.771 17.3736V12.0523V0.427353H236.177V25.3127H241.754L241.782 25.3347L248.473 16.4074L254.607 25.313H261Z" fill="#100F0D"/>
<path d="M142.554 14.9814L146.157 6.0804L148.905 12.8705L149.709 14.8282C147.444 15.8883 144.847 15.9541 142.554 14.9814ZM143.412 0.427055L132.572 25.3135H138.339L140.493 19.9807H140.535L140.718 19.5329C142.397 20.2657 144.191 20.6419 145.989 20.6419C147.901 20.6419 149.807 20.2115 151.577 19.3823L154.011 25.3135H159.845L148.97 0.427055H143.412Z" fill="#100F0D"/>
</g>
<defs>
<clipPath id="clip0_1458_3879">
<rect width="260" height="37" fill="white"/>
</clipPath>
</defs>
</svg>

<svg width="260" height="37" fill="none" xmlns="http://www.w3.org/2000/svg"><g clip-path="url(#clip0_1458_3879)"><path d="M32.463 25.852c-2.759-.011-5.148-1.606-6.352-3.94-.012-.022-.028-.043-.04-.066h-.007L14.083.422 1 .372l18.607 33.266c2.498 4.463 8.78 4.488 11.31.043l4.943-8.686a7.048 7.048 0 01-3.397.857zM38.446.506L27.151.472l5.44 9.732.004-.007c1.072 2.171 3.263 3.666 5.803 3.676 3.607.013 6.541-2.968 6.555-6.659.014-3.69-2.9-6.694-6.507-6.708z" fill="#1C62AE"/><path d="M90.994 14.931h11.292v-4.479H90.994V5.048h12.785V.427H85.401v24.885h18.83v-4.62H90.994v-5.76zM183.952 5.12h7.782v20.193h5.629V5.119h7.781V.427h-21.192v4.692zM69.178 18.203L61.778.427h-6.08l10.491 24.887h5.56L82.276.427h-5.594l-7.504 17.776zM116.378 5.902c1.203-.663 2.583-.995 4.135-.995 2.454 0 4.551.936 6.287 2.808l3.615-3.413c-1.182-1.398-2.641-2.464-4.378-3.2C124.3.368 122.364.001 120.234.001c-2.548 0-4.841.55-6.878 1.653-2.039 1.101-3.631 2.63-4.778 4.585-1.147 1.956-1.72 4.166-1.72 6.631s.573 4.675 1.72 6.63c1.147 1.956 2.727 3.485 4.743 4.587 2.015 1.102 4.284 1.652 6.809 1.652 1.76 0 3.509-.272 5.246-.817 1.738-.545 3.266-1.327 4.587-2.347V12.479h-5.143v7.288c-1.297.711-2.756 1.067-4.377 1.067-1.529 0-2.89-.338-4.082-1.014a7.199 7.199 0 01-2.797-2.826c-.673-1.208-1.008-2.583-1.008-4.124 0-1.565.335-2.95 1.008-4.16a7.053 7.053 0 012.814-2.808zM177.7 11.946c-1.181-.45-2.699-.9-4.552-1.352-1.783-.402-3.109-.811-3.978-1.226-.867-.414-1.302-1.048-1.302-1.902 0-.853.376-1.54 1.129-2.061.752-.522 1.916-.783 3.492-.783 2.245 0 4.493.652 6.74 1.956l1.737-4.373c-1.112-.711-2.41-1.257-3.891-1.636A18.32 18.32 0 00172.523 0c-2.223 0-4.105.345-5.645 1.032-1.54.687-2.693 1.617-3.457 2.79-.765 1.174-1.146 2.484-1.146 3.93 0 1.659.422 2.985 1.268 3.98a7.383 7.383 0 003.039 2.17c1.181.45 2.698.9 4.551 1.35 1.204.284 2.16.545 2.867.782.707.238 1.286.552 1.737.942.451.392.677.884.677 1.476 0 .806-.381 1.452-1.146 1.938-.765.486-1.945.728-3.544.728a13.67 13.67 0 01-4.308-.71c-1.436-.474-2.675-1.103-3.717-1.885l-1.912 4.337c1.09.854 2.531 1.547 4.326 2.08 1.794.534 3.654.8 5.576.8 2.224 0 4.111-.344 5.663-1.031 1.552-.687 2.716-1.617 3.492-2.79a6.9 6.9 0 001.165-3.893c0-1.66-.423-2.975-1.269-3.947a7.539 7.539 0 00-3.04-2.133zM225.751 16.995a7.214 7.214 0 01-2.728 2.826c-1.159.676-2.455 1.013-3.891 1.013s-2.733-.337-3.892-1.013a7.182 7.182 0 01-2.726-2.826c-.661-1.21-.991-2.584-.991-4.125 0-1.54.33-2.915.991-4.123a7.18 7.18 0 012.726-2.827c1.159-.675 2.456-1.013 3.892-1.013s2.732.338 3.891 1.013a7.213 7.213 0 012.728 2.827c.659 1.208.99 2.583.99 4.123 0 1.541-.331 2.915-.99 4.125zm.191-15.324c-2.016-1.113-4.286-1.67-6.81-1.67-2.526 0-4.8.557-6.827 1.67-2.028 1.115-3.613 2.649-4.76 4.605-1.147 1.955-1.72 4.154-1.72 6.595 0 2.44.573 4.639 1.72 6.594 1.147 1.956 2.732 3.49 4.76 4.604 2.027 1.114 4.301 1.671 6.827 1.671 2.524 0 4.794-.557 6.81-1.671 2.014-1.114 3.601-2.648 4.759-4.604 1.158-1.955 1.737-4.154 1.737-6.595 0-2.44-.579-4.64-1.737-6.594-1.158-1.956-2.745-3.49-4.759-4.605zM261 25.313l-9.195-13.35 8.688-11.59h-5.978l-12.744 17V.428h-5.594v24.886h5.577l.028.022 6.691-8.928 6.134 8.906H261zM142.554 14.981l3.603-8.9 2.748 6.79.804 1.957a8.78 8.78 0 01-7.155.153zm.858-14.554l-10.84 24.887h5.767l2.154-5.333h.042l.183-.448a13.18 13.18 0 005.271 1.109c1.912 0 3.818-.43 5.588-1.26l2.434 5.931h5.834L148.97.428h-5.558z" fill="#100F0D"/></g><defs><clipPath id="clip0_1458_3879"><path fill="#fff" d="M0 0h260v37H0z"/></clipPath></defs></svg>
